X:1
T: McLean's Pipe
C:
R:Jig
Q:180
K:D
M:6/8
L:1/16
|:f2e2f2 d4d2|f2e2f2 a6|f2e2f2 d4d2|g4f2e6|
f2e2f2 d4d2|f2e2f2 a6|A2B2A2 d2e2f2|e6d6:|
|:a2b2a2 f2d2f2|a6-a4f2|g2a2g2 d2B2d2|g6-g4e2|
a2b2a2 f2d2f2|g2a2b2 a2f2d2|A2B2A2 d2e2f2|e6d6:|
